!!!OTL: Cumberland's Crew
!!!ONM: 113.
**kern
*clefG2
*k[b-e-a-]
*E-:
*M6/8
*MM120
{8e-
=1
8ee-
8e-
8e-
8g
8f
8e-
=2
8.b-
16b-
8b-
8cc
8b-}
{24b-
24b-
24b-
=3
8ee-
8e-
8e-
8g
8f
8e-
=4
8f
8g
8a-
4b-}
{16b-
16b-
=5
8ee-
8e-
8e-
8g
8f
8e-
=6
8.b-
16b-
8b-
8cc
8b-}
{16e-
16e-
=7
8a-
8a-
8a-
8g
8f
8e-
=8
8f
8f
8f
4e-}
==
*-
!!!CNT: Folksongs of Maritime Canada
!!!MRD: 1928///-1932///
!!!OCL: Helen Creighton
!!!YOR: Songs and Ballads from Nova Scotia
!!!PPR: J.M. Dent & Sons, Limited
!!!PPP: Toronto, Canada
!!!PDT: 1932///
!!!reprint: Dover Publications, 1992: ISBN 0-486-21703-5
!!!ENC1: Craig Stuart Sapp (music and bibliographic data)                       
!!!ENC2: Marcus Pearce (phrase markings and key designations)                   
!!!ENC3: Darrell Conklin (phrase markings and key designations)   
!!!END: 2002/04/10/
!!!EEV: 2004/06/05
!!!MPN: Mr. Ben Henneberry
!!!PPG: 244
!!!EFL: 114/152
!!!ARE: Canada; Nova Scotia
!!!verses: 11
!!!VTS: 911660939
